resources/icons/16px/mountain.svg

<svg xmlns="http://www.w3.org/2000/svg" viewBox="0 0 16 16">
  <path d="M16 13H3l6-9h1l2 2h1zm-2.5-3.5-1-2.5h-1l-2-2-3 4.5L9 8l1 1 1-1zM5.94 7l-4.122 6H0l5-6z"/>
</svg>

<?xml version="1.0" encoding="UTF-8"?>
<svg width="16px" height="16px" viewBox="0 0 16 16" version="1.1" xmlns="http://www.w3.org/2000/svg" xmlns:xlink="http://www.w3.org/1999/xlink">
    <!-- Generator: Sketch 49.1 (51147) - http://www.bohemiancoding.com/sketch -->
    <title>Artboard 2</title>
    <desc>Created with Sketch.</desc>
    <defs></defs>
    <g id="Artboard-2" stroke="none" stroke-width="1" fill="none" fill-rule="evenodd">
        <path d="M16,13 L3,13 L9,4 L10,4 L12,6 L13,6 L16,13 Z M13.5,9.5 L12.5,7 L11.5,7 L9.5,5 L6.5,9.5 L9,8 L10,9 L11,8 L13.5,9.5 Z M5.93956372,7 L1.8183516,13 L0,13 L5,7 L5.93956372,7 Z" id="Combined-Shape" fill="#000000"></path>
    </g>
</svg>
